src/icons/icons_set_01/061-corbeille.svg

<svg height="124" viewBox="0 0 124 124" width="124" xmlns="http://www.w3.org/2000/svg"><g transform="translate(24 11)"><path d="m53.732132 90.9929656c.0549979.0043965.1091873.0070344.162568.0070344.9721731 0 1.8003805-.8115914 1.8836866-1.8834548l4.2146376-53.8833352c.0889675-1.1325349-.6834328-2.129658-1.7243537-2.2255014-1.0708463-.0976018-1.9597135.7430061-2.0462548 1.875541l-4.2154464 53.8833352c-.0889675 1.1325348.6842418 2.129658 1.7251627 2.2263808z"/><path d="m38 91c1.1055106 0 2-.9215142 2-2.0584589v-53.8839616c0-1.1360653-.8944894-2.0575795-2-2.0575795s-2 .9215142-2 2.0575795v53.8839616c0 1.1369447.8944894 2.0584589 2 2.0584589z"/><path d="m23.1056831 91c.0541785 0 .1075481-.002638.1633437-.0070344 1.0399019-.096723 1.8129549-1.0938482 1.7240052-2.2263854l-4.2162114-53.8834448c-.0865238-1.1334164-.9962356-1.9722676-2.0458411-1.8755448-1.0407105.0958436-1.8129547 1.0929688-1.7240052 2.2255059l4.2154028 53.8834449c.0832893 1.073624.9113293 1.8834586 1.883306 1.8834586z"/><path d="m68.9783492 9.84770436h-17.2849135v-7.78733476c0-1.13799993-.9128988-2.0603696-2.0402895-2.0603696h-22.3054205c-1.1282627 0-2.0411615.92236967-2.0411615 2.0603696v7.78733476h-17.30671146c-4.41016397 0-7.99985274 3.62170924-7.99985274 8.07425524v5.8088166c0 1.1379999.91289868 2.0603696 2.04116141 2.0603696h1.61740898l7.22907661 75.3465122c.1020147 1.056149.9809086 1.862342 2.0306983 1.862342h51.1633093c1.050662 0 1.9312997-.806193 2.0306983-1.862342l7.2098947-75.3465122h1.637463c1.1273906 0 2.0402894-.9223697 2.0402894-2.0603696v-5.8088166c0-4.452546-3.5992798-8.07425524-8.0216508-8.07425524zm-39.590334-5.72784523h18.2239698v5.72784523h-18.2239698zm-25.30656436 13.80210047c0-2.1800664 1.75778782-3.9543959 3.9184019-3.9543959h60.97849646c2.1728211 0 3.9402001 1.7743295 3.9402001 3.9543959v3.7493271h-68.83709846zm58.14650496 80.9573012h-47.4559115l-7.01371294-73.088115h61.46415504z"/></g></svg>

<?xml version="1.0" encoding="UTF-8"?>
<svg width="124px" height="124px" viewBox="0 0 124 124" version="1.1" xmlns="http://www.w3.org/2000/svg" xmlns:xlink="http://www.w3.org/1999/xlink">
    <!-- Generator: Sketch 55 (78076) - https://sketchapp.com -->
    <title>Artboard</title>
    <desc>Created with Sketch.</desc>
    <g id="Artboard" stroke="none" stroke-width="1" fill="none" fill-rule="evenodd">
        <g id="060-corbeille" transform="translate(24.000000, 11.000000)" fill="#000000" fill-rule="nonzero">
            <path d="M53.732132,90.9929656 C53.7871299,90.9973621 53.8413193,91 53.8947,91 C54.8668731,91 55.6950805,90.1884086 55.7783866,89.1165452 L59.9930242,35.23321 C60.0819917,34.1006751 59.3095914,33.103552 58.2686705,33.0077086 C57.1978242,32.9101068 56.308957,33.7507147 56.2224157,34.8832496 L52.0069693,88.7665848 C51.9180018,89.8991196 52.6912111,90.8962428 53.732132,90.9929656 L53.732132,90.9929656 Z" id="Path"></path>
            <path d="M38,91 C39.1055106,91 40,90.0784858 40,88.9415411 L40,35.0575795 C40,33.9215142 39.1055106,33 38,33 C36.8944894,33 36,33.9215142 36,35.0575795 L36,88.9415411 C36,90.0784858 36.8944894,91 38,91 Z" id="Path"></path>
            <path d="M23.1056831,91 C23.1598616,91 23.2132312,90.997362 23.2690268,90.9929656 C24.3089287,90.8962426 25.0819817,89.8991174 24.993032,88.7665802 L20.7768206,34.8831354 C20.6902968,33.749719 19.780585,32.9108678 18.7309795,33.0075906 C17.690269,33.1034342 16.9180248,34.1005594 17.0069743,35.2330965 L21.2223771,89.1165414 C21.3056664,90.1901654 22.1337064,91 23.1056831,91 Z" id="Path"></path>
            <path d="M68.9783492,9.84770436 L51.6934357,9.84770436 L51.6934357,2.0603696 C51.6934357,0.92236967 50.7805369,0 49.6531462,0 L27.3477257,0 C26.219463,0 25.3065642,0.92236967 25.3065642,2.0603696 L25.3065642,9.84770436 L7.99985274,9.84770436 C3.58968877,9.84770436 0,13.4694136 0,17.9219596 L0,23.7307762 C0,24.8687761 0.912898678,25.7911458 2.04116141,25.7911458 L3.65857039,25.7911458 L10.887647,101.137658 C10.9896617,102.193807 11.8685556,103 12.9183453,103 L64.0816546,103 C65.1323166,103 66.0129543,102.193807 66.1123529,101.137658 L73.3222476,25.7911458 L74.9597106,25.7911458 C76.0871012,25.7911458 77,24.8687761 77,23.7307762 L77,17.9219596 C77,13.4694136 73.4007202,9.84770436 68.9783492,9.84770436 Z M29.3880152,4.11985913 L47.611985,4.11985913 L47.611985,9.84770436 L29.3880152,9.84770436 L29.3880152,4.11985913 Z M4.08145084,17.9219596 C4.08145084,15.7418932 5.83923866,13.9675637 7.99985274,13.9675637 L68.9783492,13.9675637 C71.1511703,13.9675637 72.9185493,15.7418932 72.9185493,17.9219596 L72.9185493,21.6712867 L4.08145084,21.6712867 L4.08145084,17.9219596 Z M62.2279558,98.8792608 L14.7720443,98.8792608 L7.75833136,25.7911458 L69.2224864,25.7911458 L62.2279558,98.8792608 Z" id="Shape"></path>
        </g>
    </g>
</svg>
